X:1
T:Elegy
T:Mélodie 
T:Arno Babadjanian
C:Arno Babadjanian
%%score { ( 1 3 ) | 2 }
L:1/8
M:2/2
K:Eb
V:1 treble nm="Piano" snm="Pia."
V:3 treble 
V:2 bass 
V:1
 z2[Q:1/4=92]"^Andante"!mp![Q:1/4=90]"^\n" (C2 E2 F2) | G4 G4 | z (GAG =B_BPAG) | G4 G4 | %4
 z (GAG AGPF=E) | F4 F4 | z G(GF) (FE){/E}(PED) |!>(! (E6 C2)!>)! | _D2 F2 A2 =B2 | G4 G4 | %10
 z (GAG =B_BPAG) | G4 G4 | z (G(GA) (BA){/F}(PAG)) | A4 A4 | z (Ace) (ed{/d}Pdc) | %15
!mf!!>(! (d6 G2)!>)!!p! | g4 (fe)(ed) | d2- [_Acd-]2 (de)(ef) | (e4-!<(! ee)(dc)!<)! | %19
 =Bc d2 [F_A]2 _B2 |!f! [egb]2 [Be]2 aggf | (g4 gaab) |!<(! c'4"_cresc." c'aa=b!<)! | %23
 (c'4 c')aa=b |!ff! c'8- | c'8 |!fff! [dfac']8- | [dfac'] z z2!pp! D4 | F4 A4 | G4 G4 | %30
 z GAG BBPAF | G4 G4 | z (GAG AGPF=E) | F4 F4 | z G(GF) (FE){/E}(ED) |!>(! (E6 C2)!>)! | %36
!>(! (E6 C2)!>)! |"_dim." [CE]8- | [CE]4 A4 | c6 A2 | G4 G4- |"_dim." G8- |!>(! G8-!>)! | %43
!>(! !fermata!G8!>)! |] %44
V:2
 z8 |!ped! [CE]2 [CE]2 [CE]2 [CE]2!ped-up! |!ped! [=B,D]2 [B,D]2!ped! [B,D]2!ped! [B,D]2!ped-up! | %3
!ped! [_B,_D]2 [B,D]2 [B,D]2 [B,D]2!ped-up! |!ped! [B,_D]2 [B,D]2!ped! [B,D]2!ped! [B,D]2!ped-up! | %5
!ped! [=A,C]2 [A,C]2 [A,C]2 [A,C]2!ped-up! | %6
!ped! [_A,D]2 [A,D]2!ped! [G,=B,]2!ped! [G,B,]2!ped-up! | %7
!ped! [_G,_B,]2 [G,B,]2 [G,B,]2 [G,B,]2!ped-up! | [F,A,]2 [A,_D]2 [DF]2 [DF]2 | %9
 [CE]2 [CE]2 [CE]2 [CE]2 |!ped! [=B,D]2 [B,D]2!ped! [B,D]2!ped! [B,D]2!ped-up! | %11
!ped! [_B,_D]2 [B,D]2 [B,D]2 [B,D]2!ped-up! |!ped! [B,_D]2 [DF]2 [C=E]2 [C_E]2!ped-up! | %13
!ped! [C_E]2 [CE]2 [CE]2 [CE]2!ped-up! | [CE]2[K:treble] [EA]2 [^F=A]2 [FA]2 | %15
!ped! [G=B]2 [GB]2 [GB]2 GF!ped-up! | [EG]2 [EG]2 [DF]2 [D^F]2 | %17
!ped! [DF]2 [DF]2!ped! F2 F2!ped-up! |!ped! E2 E2[K:bass] D,2 D,2!ped-up! | %19
!ped! G,2 [F,A,]2!ped! B,2 B,B,!ped-up! |!ped! E,,2 B,2 E,2 E,2!ped-up! | [E,B,]2 E,2 E,2 E,2 | %22
 A,2 A,G, A,2 A,G, | F,2 F,=E, F,2 F,_E, |!ped! [D,,D,]2 D,E,!ped! D,2 F,G,!ped-up! | %25
!ped! F,2 A,C[K:treble] DFc=B!ped-up! |!ped! c8-!ped-up! | c z z2 z4 |[K:bass]!ped! z8!ped-up! | %29
 [CE]2 [CE]2 [CE]2 [CE]2 | [=B,D]2 [B,D]2 [B,D]2 [B,D]2 | [_B,_D]2 [B,D]2 [B,D]2 [B,D]2 | %32
 [B,_D]2 [B,D]2 [B,D]2 [B,D]2 | [A,D]2 [A,D]2 [A,D]2 [A,D]2 | [A,C]2 [A,C]2 [G,B,]2 [G,B,]2 | %35
 [_G,_B,]2 [G,B,]2 [G,B,]2 [G,B,]2 | [F,=A,]2 [F,A,]2 [F,_A,]2 [F,A,]2 | %37
!ped! [_F,_A,]2 [F,A,]2 [F,A,]2 [F,A,]2!ped-up! | [_F,A,]8 | [F,A,]8 | [=CE]2 [CE]2 [CE]2 [CE]2- | %41
 [CE]2 [CE]4- [CE]2 | [A,C]4- [A,C]4 | [CE]8 |] %44
V:3
 x8 | x8 | x8 | x8 | x8 | x8 | x8 | x8 | x8 | x8 | x8 | x8 | x8 | x8 | x8 | x8 | x8 | x8 | x8 | %19
 x8 | x8 | x8 | x8 | x8 | [cfa]2 [cfa]2"_cresc." [cfa]2 [cfa]2 | [cfa]2 [cfa]2 [cfa]2 [cfa]2 | x8 | %27
 x8 | x8 | x8 | x8 | x8 | x8 | x8 | x8 | x8 | x8 | x8 | x8 | x8 | x8 | x8 | x8 | x8 |] %44

